BookReader/images/icon_gear.svg

<?xml version="1.0" encoding="UTF-8" standalone="no"?>
<svg width="23px" height="23px" viewBox="0 0 23 23" version="1.1" xmlns="http://www.w3.org/2000/svg" xmlns:xlink="http://www.w3.org/1999/xlink" aria-labelledby="gearTitleID gearDescID">
  <title id="gearTitleID">Settings icon</title>
  <desc id="gearDescID">A two-dimensional illustration of a gear</desc>
  <defs></defs>
  <g stroke="none" stroke-width="1" fill="none" fill-rule="evenodd">
    <g transform="translate(-10.000000, -116.000000)" fill="#fff">
      <g transform="translate(10.000000, 116.000000)">
        <path d="M11.0256889,0.210322222 L11.9196222,0.210322222 C11.9362333,0.213388889 11.9528444,0.218755556 11.9694556,0.219777778 C12.1741556,0.231788889 12.3791111,0.2392 12.5835556,0.2553 C13.0190222,0.290055556 13.4529556,0.340911111 13.8784556,0.443644444 C14.2272889,0.527722222 14.4785,0.810366667 14.5255222,1.16635556 C14.6044889,1.76384444 14.6832,2.36133333 14.7583333,2.95933333 C14.7652333,3.0153 14.7882333,3.03727778 14.8370444,3.05516667 C14.9359444,3.0912 15.0338222,3.12953333 15.1276111,3.17502222 C15.1812778,3.20108889 15.2173111,3.19674444 15.2643333,3.16045556 C15.7235667,2.80446667 16.1848444,2.45128889 16.6453556,2.09734444 C17.0003222,1.82466667 17.3545222,1.80856667 17.7281444,2.05211111 C18.3915667,2.48527778 18.9844556,3.00456667 19.5423333,3.56397778 C20.0917778,4.11495556 20.6008444,4.70017778 21.0258333,5.3544 C21.2576222,5.71141111 21.2392222,6.07506667 20.9788111,6.41367778 C20.6202667,6.88006667 20.2622333,7.34671111 19.9024111,7.81207778 C19.8712333,7.85194444 19.8671444,7.88261111 19.8883556,7.92861111 C19.9338444,8.02572222 19.9757556,8.12487778 20.0107667,8.22582222 C20.0304444,8.28204444 20.0608556,8.30453333 20.1181,8.31143333 C20.6969333,8.38503333 21.2747444,8.46221111 21.8533222,8.53504444 C22.2701333,8.58743333 22.5458778,8.8297 22.6376222,9.24037778 C22.7533889,9.75864444 22.8070556,10.2850889 22.8364444,10.8146 C22.8696667,11.4151556 22.8653222,12.0154556 22.8211111,12.6155 C22.7866111,13.0755 22.7332,13.5337111 22.6299556,13.984 C22.5476667,14.3440778 22.2637444,14.5981 21.8967667,14.6466556 C21.2990222,14.7243444 20.7017889,14.8028 20.1037889,14.8799778 C20.0562556,14.8861111 20.033,14.9052778 20.0163889,14.9502556 C19.9790778,15.0532444 19.9369111,15.1552111 19.8906556,15.2541111 C19.8663778,15.3049667 19.8714889,15.3384444 19.9059889,15.3831667 C20.2624889,15.8426556 20.6159222,16.3034222 20.9698667,16.7641889 C21.2453556,17.1227333 21.2604333,17.4759111 21.0135667,17.8533667 C20.5929222,18.4960889 20.0925444,19.0721111 19.5520444,19.6151667 C18.9895667,20.1799444 18.3913111,20.7043444 17.7215,21.1408333 C17.3558,21.3795222 16.9952111,21.3624 16.6502111,21.0966222 C16.1840778,20.7383333 15.7179444,20.3792778 15.2500222,20.0222667 C15.2280444,20.0054 15.1863889,19.9941556 15.1618556,20.0033556 C15.0430222,20.0465444 14.9257222,20.0956111 14.8104667,20.1474889 C14.7895111,20.1572 14.7667667,20.1863333 14.7637,20.2090778 C14.6829444,20.8109111 14.6037222,21.4135111 14.5262889,22.0161111 C14.4802889,22.3746556 14.2244778,22.6659889 13.8710444,22.7477667 C13.3609556,22.8660889 12.8416667,22.9200111 12.3200778,22.9529778 C12.1427222,22.9642222 11.9646,22.9731667 11.7872444,22.9826222 L11.1573,22.9826222 C11.0941778,22.9780222 11.0310556,22.9716333 10.9681889,22.9690778 C10.35,22.9468444 9.73615556,22.8893444 9.12972222,22.7618222 C8.73974444,22.6800444 8.46936667,22.4007222 8.41927778,22.0222444 C8.33954444,21.4199 8.26185556,20.8170444 8.18084444,20.2154667 C8.17726667,20.1888889 8.15043333,20.1554111 8.1259,20.1441667 C8.02214444,20.0961222 7.91378889,20.0580444 7.80977778,20.0105111 C7.76173333,19.9882778 7.72876667,19.9916 7.68557778,20.0253333 C7.22251111,20.3838778 6.7574,20.7401222 6.29305556,21.0971333 C5.9478,21.3626556 5.58797778,21.3785 5.22151111,21.1403222 C4.55706667,20.7079222 3.96468889,20.1886333 3.40604444,19.6292222 C2.85327778,19.0749222 2.34088889,18.4861222 1.9136,17.8273 C1.68922222,17.4812778 1.7066,17.1125111 1.95781111,16.7859111 C2.31456667,16.3213111 2.67132222,15.8562 3.03037778,15.3933889 C3.07203333,15.3397222 3.07765556,15.2996 3.04698889,15.2387778 C2.99894444,15.1434556 2.96061111,15.0422556 2.92406667,14.9415667 C2.90924444,14.9004222 2.88598889,14.8861111 2.84535556,14.881 C2.26933333,14.8068889 1.69382222,14.7307333 1.11728889,14.6579 C0.655755556,14.5991222 0.391255556,14.3578778 0.2967,13.9032444 C0.155633333,13.2242333 0.102222222,12.5365333 0.0889333333,11.8442333 C0.0874,11.7668 0.0820333333,11.6888556 0.0784555556,11.6114222 L0.0784555556,11.5820333 C0.0812666667,11.5603111 0.0856111111,11.5391 0.0863777778,11.5173778 C0.0986444444,11.2076444 0.104011111,10.8971444 0.123688889,10.5879222 C0.153077778,10.1223 0.210833333,9.66 0.314333333,9.20434444 C0.391511111,8.86547778 0.665977778,8.60072222 0.997688889,8.55037778 C1.2581,8.51076667 1.51978889,8.4801 1.78122222,8.44611111 C2.1344,8.3996 2.48757778,8.35308889 2.84101111,8.30862222 C2.88828889,8.30274444 2.91103333,8.28332222 2.92764444,8.23834444 C2.96597778,8.13331111 3.00865556,8.02955556 3.05593333,7.9281 C3.0774,7.88184444 3.07305556,7.85143333 3.04213333,7.81156667 C2.68358889,7.34824444 2.32708889,6.88338889 1.96982222,6.41904444 C1.70327778,6.07302222 1.68564444,5.71243333 1.9228,5.34775556 C2.35801111,4.67922222 2.88036667,4.08326667 3.44361111,3.52206667 C3.99663333,2.97134444 4.58364444,2.46074444 5.24093333,2.03575556 C5.58695556,1.81214444 5.95546667,1.83131111 6.28181111,2.08252222 C6.75024444,2.44285556 7.21842222,2.80318889 7.68813333,3.16173333 C7.71241111,3.17987778 7.75611111,3.19418889 7.78192222,3.18498889 C7.90126667,3.14231111 8.0178,3.09273333 8.13331111,3.04085556 C8.15452222,3.0314 8.17752222,3.00252222 8.18058889,2.97977778 C8.26032222,2.3897 8.33877778,1.79962222 8.41416667,1.20903333 C8.46757778,0.792222222 8.71393333,0.517755556 9.12307778,0.428566667 C9.60582222,0.323277778 10.0954667,0.269355556 10.5876667,0.237666667 C10.7341,0.229488889 10.8797667,0.219777778 11.0256889,0.210322222 L11.0256889,0.210322222 Z M10.0356667,2.00994444 C10.0338778,2.01607778 10.0303,2.02272222 10.0297889,2.02987778 C9.95618889,2.58877778 9.88054444,3.14742222 9.81052222,3.70657778 C9.7635,4.08122222 9.57413333,4.34316667 9.21507778,4.4666 C8.80618889,4.6069 8.40905556,4.77301111 8.01984444,4.96135556 C7.69912222,5.11647778 7.38862222,5.08146667 7.10418889,4.86628889 C6.78295556,4.62325556 6.4653,4.37587778 6.1456,4.13028889 C6.00121111,4.01886667 5.85631111,3.90795556 5.70757778,3.79397778 C4.94525556,4.39427778 4.26701111,5.07047778 3.67182222,5.8305 C3.6915,5.85707778 3.70606667,5.87675556 3.72088889,5.89592222 C4.06154444,6.33905556 4.40373333,6.78142222 4.7426,7.22583333 C4.95317778,7.50208889 4.99841111,7.80722222 4.84865556,8.12078889 C4.65392222,8.5284 4.48116667,8.94393333 4.33064444,9.36968889 C4.21871111,9.68632222 3.98053333,9.8739 3.65035556,9.92168889 C3.08762222,10.0029556 2.52335556,10.0727222 1.95908889,10.1427444 C1.89213333,10.1509222 1.87296667,10.1775 1.86938889,10.2357667 C1.84511111,10.6474667 1.81035556,11.0586556 1.79655556,11.4708667 C1.78045556,11.9643444 1.81316667,12.4568 1.86887778,12.9474667 C1.87424444,12.9916778 1.87015556,13.0366556 1.93813333,13.0450889 C2.47556667,13.1128111 3.01197778,13.1887111 3.54992222,13.2513222 C3.95804444,13.2991111 4.232,13.501 4.36028889,13.8958333 C4.48781111,14.2883667 4.65264444,14.6653111 4.83408889,15.0361222 C4.9956,15.3650222 4.95982222,15.6801222 4.738,15.9704333 C4.4252,16.3803444 4.10984444,16.7874444 3.79602222,17.1960778 C3.75436667,17.2497444 3.71322222,17.3039222 3.67054444,17.3596333 C4.27084444,18.1214444 4.94653333,18.7984111 5.7063,19.3948778 C5.73364444,19.3746889 5.75715556,19.3575667 5.78041111,19.3401889 C6.2215,19.0010667 6.66182222,18.6604111 7.1047,18.3233333 C7.3761,18.1165889 7.67791111,18.0688 7.98662222,18.2139556 C8.4019,18.4094556 8.82382222,18.5855333 9.25596667,18.7401444 C9.56212222,18.8495222 9.74663333,19.0813111 9.79595556,19.4045889 C9.85115556,19.7662 9.89383333,20.1301111 9.94136667,20.4927444 C9.97177778,20.7224889 10.0019333,20.9519778 10.0318333,21.1799333 C10.0461444,21.1847889 10.0548333,21.1893889 10.0645444,21.1901556 C10.2150667,21.206 10.3653333,21.2251667 10.5161111,21.2366667 C11.2950444,21.2936556 12.0724444,21.2857333 12.8488222,21.1955222 C12.8943111,21.1901556 12.9150111,21.1784 12.9214,21.1275444 C12.9909111,20.5781 13.0655333,20.0291667 13.1355556,19.4799778 C13.1836,19.1022667 13.3778222,18.8431333 13.7407111,18.7197 C14.1381,18.5842556 14.5255222,18.4258111 14.9014444,18.2379778 C15.2372444,18.0708444 15.5574556,18.1048333 15.8554333,18.3335556 C16.1866333,18.5878333 16.5175778,18.8428778 16.8487778,19.0971556 C16.9775778,19.1960556 17.1068889,19.2949556 17.2336444,19.3920667 C17.2448889,19.3861889 17.2494889,19.3844 17.2533222,19.3815889 C17.9944333,18.8002 18.6565778,18.1393333 19.2415444,17.4012889 C19.2773222,17.3565667 19.2561111,17.3343333 19.2313222,17.3023889 C18.8845333,16.8515889 18.5349333,16.4025778 18.1922333,15.9492222 C17.9921333,15.6839556 17.9497111,15.3862333 18.0907778,15.0857 C18.2878111,14.6658222 18.4641444,14.2390444 18.6223333,13.8028111 C18.7352889,13.4907778 18.9767889,13.3124 19.3067111,13.2669111 C19.8336667,13.1940778 20.3613889,13.1278889 20.8886,13.0591444 C21.0613556,13.0364 21.0613556,13.0361444 21.0853778,12.8621111 C21.0881889,12.8426889 21.0904889,12.8235222 21.0922778,12.8035889 C21.1541222,12.1907667 21.1694556,11.5753889 21.1354667,10.9602667 C21.1216667,10.7141667 21.0956,10.4688333 21.0741333,10.2232444 C21.0708111,10.1844 21.0669778,10.1519444 21.0102444,10.1447889 C20.4510889,10.0742556 19.8924444,9.99988889 19.3335444,9.9268 C18.9760222,9.88003333 18.7263444,9.68938889 18.6072556,9.35077778 C18.4623556,8.93831111 18.2982889,8.5353 18.1063667,8.14225556 C17.9504778,7.82153333 17.9870222,7.51154444 18.2022,7.2266 C18.3782778,6.99276667 18.5587,6.76174444 18.7373333,6.52944444 C18.9157111,6.2974 19.0943444,6.06535556 19.2747667,5.83024444 C18.6754889,5.06868889 17.9987778,4.38993333 17.2387556,3.79423333 C17.2119222,3.81416667 17.1919889,3.82873333 17.1728222,3.8433 C16.7296889,4.18395556 16.2870667,4.52563333 15.8429111,4.86475556 C15.5763667,5.06817778 15.2778778,5.12235556 14.9750444,4.98128889 C14.5475,4.78272222 14.1135667,4.60383333 13.6714556,4.44155556 C13.3745,4.33217778 13.1966333,4.10166667 13.1501222,3.78733333 C13.0849556,3.35058889 13.0325667,2.91205556 12.9745556,2.47403333 C12.9541111,2.31763333 12.9334111,2.16123333 12.9129667,2.00764444 C12.2960556,1.88957778 10.4864667,1.89162222 10.0356667,2.00994444 L10.0356667,2.00994444 Z"></path>
        <path d="M11.4744444,17.0317556 C8.47575556,17.0320111 6.0352,14.5914556 6.03698889,11.5935333 C6.03852222,8.59305556 8.47652222,6.15812222 11.4782778,6.15965556 C14.4736444,6.16118889 16.9111333,8.602 16.9085778,11.5966 C16.9055111,14.5940111 14.4693,17.0312444 11.4744444,17.0317556 L11.4744444,17.0317556 Z M11.4716333,7.86472222 C9.42003333,7.86523333 7.7441,9.53861111 7.74358889,11.5871444 C7.74282222,13.6505 9.40802222,15.3195333 11.4703556,15.3231111 C13.5247667,15.3266889 15.2017222,13.6538222 15.2024889,11.5994111 C15.2027444,9.53886667 13.5293667,7.86395556 11.4716333,7.86472222 L11.4716333,7.86472222 Z"></path>
      </g>
    </g>
  </g>
</svg>

<svg width="23" height="23" xmlns="http://www.w3.org/2000/svg" aria-labelledby="gearTitleID gearDescID"><g fill="#fff" fill-rule="evenodd"><path d="M11.026.21h.894c.016.003.033.009.05.01.204.012.41.02.614.035.435.035.869.086 1.294.189.35.084.6.366.648.722.078.598.157 1.195.232 1.793.007.056.03.078.079.096.099.036.197.075.29.12.054.026.09.022.137-.015.46-.356.92-.709 1.381-1.063.355-.272.71-.288 1.083-.045.664.433 1.256.953 1.814 1.512.55.551 1.059 1.136 1.484 1.79.232.357.213.721-.047 1.06-.359.466-.717.933-1.077 1.398-.03.04-.035.07-.014.117.046.097.088.196.123.297.02.056.05.079.107.085.579.074 1.157.151 1.735.224.417.052.693.295.785.705.115.519.17 1.045.198 1.575.034.6.03 1.2-.015 1.8a9.18 9.18 0 0 1-.191 1.369.85.85 0 0 1-.733.663l-1.793.233c-.048.006-.071.025-.088.07a3.67 3.67 0 0 1-.125.304c-.025.051-.02.084.015.13.356.459.71.92 1.064 1.38.275.359.29.712.044 1.09-.421.642-.921 1.218-1.462 1.761-.562.565-1.16 1.09-1.83 1.526-.366.239-.727.221-1.072-.044-.466-.359-.932-.718-1.4-1.075-.022-.017-.064-.028-.088-.019a5.119 5.119 0 0 0-.352.144.094.094 0 0 0-.046.062c-.081.602-.16 1.205-.238 1.807a.855.855 0 0 1-.655.732 9.49 9.49 0 0 1-1.55.205l-.534.03h-.63c-.063-.005-.126-.011-.189-.014a10.79 10.79 0 0 1-1.838-.207c-.39-.082-.66-.361-.71-.74-.08-.602-.158-1.205-.24-1.807a.109.109 0 0 0-.054-.07c-.104-.049-.212-.087-.316-.134-.048-.023-.081-.02-.124.014-.463.359-.929.715-1.393 1.072-.345.266-.705.281-1.071.043-.665-.432-1.257-.951-1.816-1.51-.553-.555-1.065-1.144-1.492-1.803-.225-.346-.207-.714.044-1.041.357-.465.713-.93 1.072-1.393.042-.053.048-.093.017-.154a2.722 2.722 0 0 1-.123-.297c-.015-.042-.038-.056-.079-.061-.576-.074-1.151-.15-1.728-.223-.461-.059-.726-.3-.82-.755a11.136 11.136 0 0 1-.208-2.059c-.002-.077-.007-.155-.01-.233v-.029c.002-.022.007-.043.007-.065.013-.31.018-.62.038-.93a8.71 8.71 0 0 1 .19-1.383.848.848 0 0 1 .684-.654c.26-.04.522-.07.783-.104.353-.046.707-.093 1.06-.137.047-.006.07-.026.087-.07.038-.106.08-.21.128-.31.021-.047.017-.078-.014-.117L1.97 6.419c-.267-.346-.284-.707-.047-1.071.435-.669.957-1.265 1.52-1.826.554-.55 1.14-1.061 1.798-1.486.346-.224.714-.205 1.04.047.47.36.937.72 1.407 1.079.024.018.068.032.094.023.12-.043.236-.092.351-.144a.093.093 0 0 0 .048-.061c.08-.59.158-1.18.233-1.771.054-.417.3-.691.71-.78.482-.106.971-.16 1.464-.191l.438-.028zm-.99 1.8c-.002.006-.006.013-.006.02-.074.559-.15 1.117-.22 1.677-.046.374-.236.636-.595.76-.409.14-.806.306-1.195.494-.32.155-.631.12-.916-.095-.321-.243-.639-.49-.958-.736l-.438-.336c-.763.6-1.441 1.276-2.036 2.036l.049.066c.34.443.683.885 1.022 1.33.21.276.255.581.106.895A12.76 12.76 0 0 0 4.33 9.37a.804.804 0 0 1-.68.552c-.563.081-1.128.15-1.692.22-.067.009-.086.036-.09.094-.024.411-.059.823-.072 1.235-.017.493.016.986.072 1.476.005.045.001.09.07.098.537.068 1.073.144 1.61.206.409.048.683.25.811.645.128.392.293.77.474 1.14.162.329.126.644-.096.934-.313.41-.628.817-.942 1.226l-.125.164a12.07 12.07 0 0 0 2.035 2.035l.074-.055c.441-.339.882-.68 1.325-1.017.271-.206.573-.254.882-.109.415.195.837.372 1.269.526.306.11.49.341.54.665.055.361.098.725.145 1.088l.09.687c.015.005.024.01.034.01.15.016.3.035.451.047.779.057 1.556.049 2.333-.041.045-.006.066-.018.072-.068.07-.55.145-1.099.215-1.648.048-.378.242-.637.605-.76a9.31 9.31 0 0 0 1.16-.482c.336-.167.656-.133.954.096l.994.763.385.295.02-.01a11.909 11.909 0 0 0 1.988-1.98c.035-.045.014-.068-.01-.1-.347-.45-.697-.9-1.04-1.353-.2-.265-.242-.563-.101-.863.197-.42.373-.847.531-1.283.113-.312.355-.49.685-.536.527-.073 1.054-.14 1.582-.208.172-.023.172-.023.196-.197l.007-.058a11.84 11.84 0 0 0 .043-1.844c-.013-.246-.04-.491-.06-.737-.004-.039-.008-.071-.065-.078-.559-.07-1.118-.145-1.676-.218-.358-.047-.608-.238-.727-.576a11.223 11.223 0 0 0-.5-1.209c-.157-.32-.12-.63.095-.915.176-.234.357-.465.535-.698l.538-.699a12.01 12.01 0 0 0-2.036-2.036l-.066.05c-.443.34-.886.682-1.33 1.02-.267.204-.565.258-.868.117a16.978 16.978 0 0 0-1.304-.54.782.782 0 0 1-.52-.654c-.066-.436-.118-.875-.176-1.313a200.5 200.5 0 0 0-.062-.466c-.617-.118-2.427-.116-2.877.002z"/><path d="M11.474 17.032a5.443 5.443 0 0 1-5.437-5.438 5.44 5.44 0 0 1 5.441-5.434 5.44 5.44 0 0 1 5.43 5.437 5.444 5.444 0 0 1-5.434 5.435zm-.002-9.167a3.735 3.735 0 0 0-3.728 3.722 3.73 3.73 0 0 0 7.458.012 3.735 3.735 0 0 0-3.73-3.734z"/></g></svg>
